src/assets/images/moonSleeping.svg

<svg width="119" height="100" viewBox="0 0 119 100" fill="none" xmlns="http://www.w3.org/2000/svg">
<path d="M1.13647 79.5315C2.36343 74.3137 14.3452 74.4068 19.8438 77.668C16.375 76.4412 10.7552 71.9532 15.2995 68.925C18.1927 66.9683 22.6158 68.3815 26.0543 72.2638C24.186 70.5531 22.5732 68.57 21.2677 66.3782C19.1773 63.3344 18.738 57.4799 23.7216 55.0729C27.9326 53.023 34.3249 54.6691 37.4605 59.654C39.3855 63.1447 40.427 67.0741 40.49 71.0836C40.49 68.3504 40.5809 63.1326 46.2006 63.5519C52.0628 63.9867 50.6389 70.9904 50.7449 74.5311C50.7449 74.5311 50.5177 64.3749 56.9252 60.5547C58.3601 59.6392 59.9837 59.0797 61.6667 58.9206C63.3497 58.7615 65.0456 59.0073 66.6196 59.6385C68.343 60.1802 69.7876 61.3982 70.6388 63.0272C71.49 64.6561 71.6788 66.5639 71.1639 68.3349C69.937 72.4967 65.4078 76.1151 65.4078 76.1151C67.832 74.839 70.3678 73.7991 72.9817 73.0092C78.147 71.9687 86.5236 71.6582 89.841 76.1151C93.1583 80.572 88.3262 86.8769 78.768 87.1564C72.4515 87.3428 18.738 87.5446 12.4063 87.5446C7.40759 87.5291 -0.135927 84.9823 1.13647 79.5315Z" fill="url(#paint0_linear_934_513)"/>
<path d="M118.864 72.093C117.712 66.5645 106.428 66.6422 101.247 70.1052C104.519 68.7852 109.76 64.0333 105.549 60.7876C102.838 58.7222 98.6719 60.2131 95.4303 64.3283C97.2253 62.4896 98.7554 60.398 99.9746 58.1166C101.929 54.902 102.323 48.799 97.6267 46.128C93.6732 43.9383 87.6596 45.6931 84.6907 50.9886C82.8823 54.7708 81.9246 58.9207 81.8884 63.1326C81.8884 60.2286 81.8126 54.6846 76.5261 55.135C70.9972 55.6009 72.3454 63.0394 72.2696 66.7975C72.2696 66.7975 72.4665 55.927 66.4378 52.0136C65.1375 51.0524 63.6147 50.4565 62.0204 50.2849C60.4262 50.1133 58.8159 50.3719 57.3492 51.0352C55.6537 51.7676 54.2808 53.1147 53.4929 54.8192C52.7049 56.5237 52.557 58.466 53.0776 60.2752C54.0167 64.6234 58.3489 68.3504 58.3489 68.3504C56.0679 67.0203 53.6625 65.9278 51.169 65.0893C46.3066 64.0022 38.4147 63.6761 35.2943 68.397C32.1739 73.1179 36.6727 79.8421 45.7158 80.1372C51.6688 80.3235 102.247 80.5565 108.215 80.5565C112.956 80.6031 120.06 77.8854 118.864 72.093Z" fill="url(#paint1_linear_934_513)"/>
<path d="M64.9382 1.57369C64.9382 1.57369 71.5123 -0.227714 73.8753 4.40002C73.4404 5.47968 72.7065 6.40508 71.7643 7.06192C70.8222 7.71875 69.7129 8.07825 68.5737 8.096C68.5737 8.096 69.0432 2.55203 64.9382 1.57369Z" fill="#069FAD"/>
<path d="M76.4505 58.7678C70.3175 58.1153 64.5017 55.6494 59.7106 51.6703C54.9196 47.6911 51.3599 42.3703 49.4645 36.355C47.5691 30.3398 47.4199 23.8894 49.0349 17.7888C50.6499 11.6882 53.9595 6.20024 58.5612 1.99268C51.2975 2.33777 44.2688 4.73774 38.2539 8.92666C32.239 13.1156 27.4727 18.9299 24.4831 25.7254C21.4935 32.5209 20.3974 40.0323 21.3162 47.4272C22.2349 54.8222 25.1327 61.812 29.6885 67.6222C34.2442 73.4324 40.28 77.8362 47.1272 80.3456C53.9743 82.8549 61.3654 83.3719 68.4815 81.8393C75.5976 80.3066 82.161 76.7841 87.4443 71.6621C92.7276 66.5401 96.5246 60.0186 98.4146 52.8201C92.0568 57.5066 84.2364 59.6244 76.4505 58.7678Z" fill="#FFB842"/>
<path d="M50.2146 31.7011C49.1869 27.914 48.8935 23.957 49.3512 20.0541C50.2903 12.1031 55.3042 4.5248 66.0136 2.3507C66.1225 2.31691 66.2179 2.24809 66.2857 2.1544C66.3536 2.06071 66.3902 1.94714 66.3902 1.83047C66.3902 1.7138 66.3536 1.60022 66.2857 1.50654C66.2179 1.41285 66.1225 1.34403 66.0136 1.31024C46.8064 -4.63749 27.7507 10.7676 21.7371 25.303C27.6598 35.9717 47.9576 33.7354 50.2146 31.7011Z" fill="url(#paint2_linear_934_513)"/>
<path d="M36.8696 40.8325H36.6121C35.0782 40.6677 33.5929 40.1849 32.2467 39.4134C30.9004 38.6419 29.7212 37.5978 28.7808 36.3445C28.716 36.2608 28.6683 36.1644 28.6408 36.0613C28.6132 35.9582 28.6063 35.8504 28.6204 35.7445C28.6346 35.6386 28.6695 35.5367 28.7231 35.445C28.7767 35.3533 28.8479 35.2736 28.9323 35.2109C29.1013 35.0799 29.314 35.0227 29.524 35.0518C29.7339 35.0808 29.9242 35.1939 30.0532 35.3661C30.0532 35.3661 32.8555 39.0777 36.6727 39.2019C39.0357 39.2019 41.3685 37.9595 43.5952 35.3196C43.7376 35.1579 43.9358 35.0593 44.1479 35.0448C44.3599 35.0303 44.5692 35.101 44.7313 35.2419C44.8106 35.3117 44.8756 35.3971 44.9225 35.4929C44.9693 35.5888 44.9971 35.6933 45.0041 35.8002C45.0112 35.9072 44.9974 36.0145 44.9635 36.116C44.9297 36.2174 44.8765 36.3109 44.807 36.3911C42.3228 39.3416 39.6568 40.8325 36.8696 40.8325Z" fill="#4F4840"/>
<path d="M37.3849 40.2734H36.4609V44.9943H37.3849V40.2734Z" fill="#4F4840"/>
<path d="M38.5172 39.9824L37.6143 40.1836L38.5921 44.7968L39.495 44.5957L38.5172 39.9824Z" fill="#4F4840"/>
<path d="M39.8752 39.5875L38.9951 39.876L40.3974 44.3727L41.2776 44.0842L39.8752 39.5875Z" fill="#4F4840"/>
<path d="M41.0515 39.0535L40.2153 39.4565L42.1745 43.7288L43.0107 43.3258L41.0515 39.0535Z" fill="#4F4840"/>
<path d="M42.1632 38.3553L41.3833 38.8633L43.8528 42.848L44.6327 42.34L42.1632 38.3553Z" fill="#4F4840"/>
<path d="M43.2221 37.4394L42.4766 37.999L45.1969 41.8081L45.9424 41.2485L43.2221 37.4394Z" fill="#4F4840"/>
<path d="M44.1995 36.6073L43.5015 37.228L46.5189 40.7942L47.2169 40.1735L44.1995 36.6073Z" fill="#4F4840"/>
<path d="M35.2772 39.9776L34.2993 44.5908L35.2023 44.792L36.1801 40.1787L35.2772 39.9776Z" fill="#4F4840"/>
<path d="M33.9241 39.569L32.521 44.0654L33.4011 44.3541L34.8042 39.8576L33.9241 39.569Z" fill="#4F4840"/>
<path d="M32.7556 39.0583L30.7964 43.3306L31.6326 43.7336L33.5918 39.4613L32.7556 39.0583Z" fill="#4F4840"/>
<path d="M31.6276 38.3509L29.1602 42.3369L29.9403 42.8445L32.4077 38.8585L31.6276 38.3509Z" fill="#4F4840"/>
<path d="M30.5743 37.4575L27.854 41.2666L28.5995 41.8262L31.3199 38.0171L30.5743 37.4575Z" fill="#4F4840"/>
<path d="M29.6028 36.6057L26.5859 40.1724L27.284 40.793L30.3009 37.2263L29.6028 36.6057Z" fill="#4F4840"/>
<path d="M66.7561 56.1131C63.8753 58.4095 60.3733 59.7382 56.7283 59.9178C53.3353 59.7936 50.2754 57.5418 48.1699 55.6162C47.75 55.9922 47.2989 56.3299 46.8218 56.6256C55.365 66.7973 66.135 60.5856 69.5887 57.2623C68.5977 57.0138 67.6446 56.6271 66.7561 56.1131Z" fill="#4F4840"/>
<path d="M45.4587 57.7438C45.0428 57.7465 44.629 57.6837 44.2317 57.5575C44.1564 57.5269 44.0878 57.4811 44.03 57.4228C43.9723 57.3645 43.9265 57.2949 43.8954 57.2182C43.8643 57.1414 43.8486 57.0591 43.8491 56.976C43.8497 56.8929 43.8664 56.8108 43.8985 56.7344C43.9592 56.5783 44.0777 56.4532 44.2281 56.3863C44.3785 56.3193 44.5486 56.3161 44.7013 56.3773C44.8073 56.3773 47.3219 57.3246 49.4122 53.349C49.4953 53.21 49.6272 53.109 49.7807 53.0667C49.9343 53.0244 50.0978 53.0441 50.2376 53.1218C50.3774 53.1994 50.4829 53.3291 50.5322 53.484C50.5815 53.639 50.571 53.8074 50.5029 53.9547C48.8215 57.1693 46.7462 57.7438 45.4587 57.7438Z" fill="#4F4840"/>
<path d="M114.865 90.9765C113.608 85.0443 101.141 85.153 95.4304 88.8335C99.0356 87.4359 104.822 82.3422 100.187 78.8947C97.1573 76.674 92.613 78.2736 89.0079 82.6839C90.973 80.7147 92.6514 78.4658 93.9914 76.0063C96.1575 72.5588 96.5817 65.9433 91.4012 63.1791C87.0387 60.8497 80.3888 62.7287 77.1321 68.3814C74.0117 73.8011 74.1026 81.3639 74.1026 81.3639C74.1026 78.258 73.9966 72.3414 68.1647 72.8072C62.1057 73.3042 63.6204 81.2707 63.4841 85.2307C63.4841 85.2307 63.7113 73.6924 57.0464 69.4063C55.5914 68.3709 53.9033 67.7321 52.1411 67.55C50.3788 67.368 48.6004 67.6488 46.9732 68.3658C45.1271 69.1159 43.6215 70.547 42.7525 72.3776C41.8836 74.2082 41.7141 76.3058 42.2774 78.258C43.4286 82.9168 48.1396 86.9544 48.1396 86.9544C45.6218 85.5313 42.9733 84.3661 40.2325 83.4759C34.8551 82.2957 26.1604 81.9229 22.7067 87.001C19.253 92.0791 24.2215 99.2381 34.2189 99.5487C40.7778 99.7661 96.5968 99.9991 103.171 99.9991C108.367 100.061 116.122 97.1727 114.865 90.9765Z" fill="url(#paint3_linear_934_513)"/>
<path d="M70.7703 32.726L61.6817 33.2229L61.5908 31.4836L67.3318 23.1133L61.7877 23.4239L61.5908 21.4983L69.8008 21.0635L69.8917 22.7562L64.1356 31.1575L70.6794 30.8159L70.7703 32.726Z" fill="#4F4840"/>
<path d="M72.9058 28.238L72.1938 26.4211L76.1171 24.8682L76.829 26.7627L72.9058 28.238Z" fill="#4F4840"/>
<path d="M80.4948 28.7194L79.6465 27.3062L80.2524 20.287L77.0411 22.3368L76.1777 20.8926L81.5248 17.4917L82.3882 18.9204L81.7823 25.9086L85.5995 23.4705L86.4781 24.9302L80.4948 28.7194Z" fill="#4F4840"/>
<path d="M86.7355 20.287L85.2207 18.9981L87.917 15.6748L89.4317 16.9637L86.7355 20.287Z" fill="#4F4840"/>
<path d="M93.6277 16.2804L92.1129 15.5815L88.9319 9.33876L87.3414 12.8794L85.8267 12.1651L88.4926 6.31055L90.0074 7.0249L93.2338 13.2366L95.1121 9.02818L96.6269 9.75805L93.6277 16.2804Z" fill="#4F4840"/>
<path d="M18.8744 17.973L16.0266 14.4634L11.6035 14.8672L13.9817 11.0159L12.2397 6.82299L16.5416 7.95663L19.8893 4.95947L20.1771 9.50956L23.9943 11.8545L19.859 13.5317L18.8744 17.973Z" fill="#FFB842"/>
<path d="M98.5813 37.9283L96.294 33.549L91.4619 32.99L94.8247 29.4027L93.8401 24.5265L98.2177 26.7006L102.429 24.2314L101.777 29.1698L105.367 32.5241L100.581 33.4093L98.5813 37.9283Z" fill="#FFB842"/>
<path d="M77.9501 47.4636L75.7234 44.3422L71.9517 44.4509L74.1632 41.314L72.906 37.6646L76.4959 38.8448L79.48 36.4844L79.4952 40.3667L82.6156 42.5408L79.0256 43.7521L77.9501 47.4636Z" fill="#FFB842"/>
<defs>
<linearGradient id="paint0_linear_934_513" x1="90.8846" y1="87.5446" x2="-24.6087" y2="63.4434" gradientUnits="userSpaceOnUse">
<stop stop-color="#92A3FD"/>
<stop offset="1" stop-color="#9DCEFF"/>
</linearGradient>
<linearGradient id="paint1_linear_934_513" x1="118.997" y1="80.5571" x2="9.22045" y2="60.2057" gradientUnits="userSpaceOnUse">
<stop stop-color="#92A3FD"/>
<stop offset="1" stop-color="#9DCEFF"/>
</linearGradient>
<linearGradient id="paint2_linear_934_513" x1="66.3902" y1="33.4018" x2="7.15434" y2="27.2741" gradientUnits="userSpaceOnUse">
<stop stop-color="#C58BF2"/>
<stop offset="1" stop-color="#EEA4CE"/>
</linearGradient>
<linearGradient id="paint3_linear_934_513" x1="115.001" y1="100" x2="-5.79525" y2="76.9054" gradientUnits="userSpaceOnUse">
<stop stop-color="#C58BF2"/>
<stop offset="1" stop-color="#EEA4CE"/>
</linearGradient>
</defs>
</svg>

<svg width="119" height="100" fill="none" xmlns="http://www.w3.org/2000/svg"><path d="M1.136 79.531c1.227-5.217 13.21-5.124 18.708-1.863-3.469-1.227-9.089-5.715-4.545-8.743 2.894-1.957 7.317-.543 10.755 3.339a26.057 26.057 0 0 1-4.786-5.886c-2.09-3.044-2.53-8.898 2.454-11.305 4.21-2.05 10.603-.404 13.739 4.581a24.475 24.475 0 0 1 3.029 11.43c0-2.734.09-7.951 5.71-7.532 5.863.435 4.439 7.438 4.545 10.98 0 0-.227-10.157 6.18-13.977a10.682 10.682 0 0 1 4.742-1.634c1.683-.16 3.379.086 4.953.718a6.872 6.872 0 0 1 4.019 3.388 7.162 7.162 0 0 1 .525 5.308c-1.227 4.162-5.756 7.78-5.756 7.78a42.903 42.903 0 0 1 7.574-3.106c5.165-1.04 13.542-1.35 16.859 3.106 3.317 4.457-1.515 10.762-11.073 11.041-6.317.187-60.03.389-66.362.389-4.998-.016-12.542-2.563-11.27-8.014Z" fill="url(#a)"/><path d="M118.864 72.093c-1.152-5.529-12.436-5.45-17.617-1.988 3.272-1.32 8.513-6.072 4.302-9.317-2.711-2.066-6.877-.575-10.119 3.54a27.33 27.33 0 0 0 4.545-6.211c1.954-3.215 2.348-9.318-2.348-11.989-3.954-2.19-9.967-.435-12.936 4.86a28.737 28.737 0 0 0-2.803 12.145c0-2.904-.075-8.448-5.362-7.998-5.529.466-4.18 7.904-4.256 11.663 0 0 .197-10.871-5.832-14.784a9.061 9.061 0 0 0-4.418-1.73 8.993 8.993 0 0 0-4.67.751 7.567 7.567 0 0 0-3.857 3.784 7.848 7.848 0 0 0-.415 5.456c.939 4.348 5.27 8.075 5.27 8.075a38.811 38.811 0 0 0-7.179-3.26c-4.862-1.088-12.754-1.414-15.875 3.307-3.12 4.72 1.379 11.445 10.422 11.74 5.953.186 56.531.42 62.499.42 4.741.046 11.845-2.672 10.649-8.464Z" fill="url(#b)"/><path d="M64.938 1.574S71.512-.228 73.875 4.4a5.951 5.951 0 0 1-2.11 2.662 5.733 5.733 0 0 1-3.191 1.034s.47-5.544-3.636-6.522Z" fill="#069FAD"/><path d="M76.45 58.768c-6.133-.653-11.948-3.119-16.74-7.098-4.79-3.979-8.35-9.3-10.245-15.315a33.398 33.398 0 0 1-.43-18.566C50.65 11.689 53.96 6.2 58.56 1.993c-7.264.345-14.292 2.745-20.307 6.934-6.015 4.189-10.781 10.003-13.77 16.798a41.29 41.29 0 0 0-3.168 21.702c.919 7.395 3.817 14.385 8.373 20.195 4.555 5.81 10.591 10.214 17.438 12.724a38.467 38.467 0 0 0 21.354 1.493c7.117-1.532 13.68-5.055 18.963-10.177 5.284-5.122 9.08-11.643 10.97-18.842-6.357 4.687-14.178 6.804-21.963 5.948Z" fill="#FFB842"/><path d="M50.215 31.701a30.796 30.796 0 0 1-.864-11.647c.94-7.95 5.953-15.53 16.663-17.703a.53.53 0 0 0 .272-.197.552.552 0 0 0-.272-.844C46.806-4.637 27.75 10.768 21.737 25.303c5.923 10.669 26.22 8.432 28.478 6.398Z" fill="url(#c)"/><path d="M36.87 40.833h-.258a11.18 11.18 0 0 1-4.365-1.42 11.46 11.46 0 0 1-3.466-3.069.8.8 0 0 1-.16-.6.806.806 0 0 1 .903-.692c.21.029.4.142.53.314 0 0 2.802 3.712 6.619 3.836 2.363 0 4.695-1.242 6.922-3.882a.805.805 0 0 1 1.409.48.825.825 0 0 1-.197.591c-2.484 2.95-5.15 4.442-7.937 4.442Z" fill="#4F4840"/><path d="M37.385 40.273h-.924v4.721h.924v-4.72ZM38.517 39.982l-.903.202.978 4.613.903-.201-.978-4.614ZM39.875 39.587l-.88.289 1.402 4.497.88-.289-1.402-4.497ZM41.051 39.053l-.836.404 1.96 4.272.836-.403-1.96-4.273ZM42.163 38.355l-.78.508 2.47 3.985.78-.508-2.47-3.985ZM43.222 37.44l-.745.559 2.72 3.81.745-.56-2.72-3.81ZM44.2 36.607l-.699.621 3.018 3.566.698-.62-3.017-3.567ZM35.277 39.978 34.3 44.59l.903.201.978-4.613-.903-.201ZM33.924 39.569l-1.403 4.496.88.29 1.403-4.497-.88-.289ZM32.756 39.058l-1.96 4.273.837.403 1.959-4.273-.836-.403ZM31.628 38.35l-2.468 3.987.78.507 2.468-3.986-.78-.507ZM30.574 37.458l-2.72 3.809.745.56 2.72-3.81-.745-.56ZM29.603 36.606l-3.017 3.566.698.621 3.017-3.567-.698-.62ZM66.756 56.113a17.462 17.462 0 0 1-10.028 3.805c-3.393-.124-6.453-2.376-8.558-4.302a9.61 9.61 0 0 1-1.348 1.01c8.543 10.171 19.313 3.96 22.767.636a11 11 0 0 1-2.833-1.149Z" fill="#4F4840"/><path d="M45.459 57.744c-.416.002-.83-.06-1.227-.187a.605.605 0 0 1-.337-.339.635.635 0 0 1 .003-.484.63.63 0 0 1 .33-.348c.15-.067.32-.07.473-.009.106 0 2.62.948 4.711-3.028a.623.623 0 0 1 .369-.282.607.607 0 0 1 .457.055c.14.077.245.207.294.362a.652.652 0 0 1-.03.47c-1.68 3.215-3.756 3.79-5.043 3.79Z" fill="#4F4840"/><path d="M114.865 90.977c-1.257-5.933-13.724-5.824-19.435-2.144 3.606-1.397 9.392-6.49 4.757-9.938-3.03-2.221-7.574-.621-11.18 3.789a29.287 29.287 0 0 0 4.984-6.678c2.166-3.447 2.59-10.063-2.59-12.827-4.362-2.33-11.012-.45-14.269 5.202-3.12 5.42-3.03 12.983-3.03 12.983 0-3.106-.105-9.023-5.937-8.557-6.06.497-4.545 8.464-4.68 12.424 0 0 .226-11.539-6.439-15.825a10.282 10.282 0 0 0-4.905-1.856 10.207 10.207 0 0 0-5.168.816 8.034 8.034 0 0 0-4.22 4.012 8.341 8.341 0 0 0-.476 5.88c1.152 4.659 5.863 8.696 5.863 8.696a43.174 43.174 0 0 0-7.907-3.478C34.855 82.296 26.16 81.923 22.707 87c-3.454 5.078 1.514 12.237 11.512 12.548 6.559.217 62.378.45 68.952.45 5.196.062 12.951-2.826 11.694-9.022Z" fill="url(#d)"/><path d="m70.77 32.726-9.088.497-.091-1.74 5.74-8.37-5.543.31-.197-1.925 8.21-.434.09 1.692-5.755 8.401 6.543-.341.091 1.91ZM72.906 28.238l-.712-1.817 3.923-1.553.712 1.895-3.923 1.475ZM80.495 28.72l-.849-1.414.606-7.019-3.21 2.05-.864-1.444 5.347-3.401.863 1.428-.606 6.989L85.6 23.47l.878 1.46-5.983 3.788ZM86.736 20.287l-1.515-1.289 2.696-3.323 1.515 1.289-2.697 3.323ZM93.628 16.28l-1.515-.699-3.181-6.242-1.59 3.54-1.515-.714 2.666-5.854 1.514.714 3.227 6.212 1.878-4.209 1.515.73-3 6.522Z" fill="#4F4840"/><path d="m18.874 17.973-2.847-3.51-4.424.404 2.379-3.851-1.742-4.193 4.302 1.134 3.347-2.998.288 4.55 3.817 2.345-4.135 1.678-.985 4.441ZM98.581 37.928l-2.287-4.379-4.832-.559 3.363-3.587-.985-4.877 4.378 2.175 4.211-2.47-.652 4.939 3.59 3.354-4.786.885-2 4.52ZM77.95 47.464l-2.227-3.122-3.771.109 2.211-3.137-1.257-3.65 3.59 1.18 2.984-2.36.015 3.883 3.12 2.174-3.59 1.211-1.075 3.712Z" fill="#FFB842"/><defs><linearGradient id="a" x1="90.885" y1="87.545" x2="-24.609" y2="63.443" gradientUnits="userSpaceOnUse"><stop stop-color="#92A3FD"/><stop offset="1" stop-color="#9DCEFF"/></linearGradient><linearGradient id="b" x1="118.997" y1="80.557" x2="9.22" y2="60.206" gradientUnits="userSpaceOnUse"><stop stop-color="#92A3FD"/><stop offset="1" stop-color="#9DCEFF"/></linearGradient><linearGradient id="c" x1="66.39" y1="33.402" x2="7.154" y2="27.274" gradientUnits="userSpaceOnUse"><stop stop-color="#C58BF2"/><stop offset="1" stop-color="#EEA4CE"/></linearGradient><linearGradient id="d" x1="115.001" y1="100" x2="-5.795" y2="76.905" gradientUnits="userSpaceOnUse"><stop stop-color="#C58BF2"/><stop offset="1" stop-color="#EEA4CE"/></linearGradient></defs></svg>
